pldoc/static/images/icons/upload.svg

<?xml version="1.0" encoding="utf-8"?>
<!-- Generated by IcoMoon.io -->
<!DOCTYPE svg PUBLIC "-//W3C//DTD SVG 1.1//EN" "http://www.w3.org/Graphics/SVG/1.1/DTD/svg11.dtd">
<svg version="1.1" xmlns="http://www.w3.org/2000/svg" xmlns:xlink="http://www.w3.org/1999/xlink" width="13" height="14" viewBox="0 0 13 14">
<path fill="#444444" d="M10 11.5q0-0.203-0.148-0.352t-0.352-0.148-0.352 0.148-0.148 0.352 0.148 0.352 0.352 0.148 0.352-0.148 0.148-0.352zM12 11.5q0-0.203-0.148-0.352t-0.352-0.148-0.352 0.148-0.148 0.352 0.148 0.352 0.352 0.148 0.352-0.148 0.148-0.352zM13 9.75v2.5q0 0.312-0.219 0.531t-0.531 0.219h-11.5q-0.312 0-0.531-0.219t-0.219-0.531v-2.5q0-0.312 0.219-0.531t0.531-0.219h3.336q0.164 0.438 0.551 0.719t0.863 0.281h2q0.477 0 0.863-0.281t0.551-0.719h3.336q0.312 0 0.531 0.219t0.219 0.531zM10.461 4.687q-0.133 0.312-0.461 0.312h-2v3.5q0 0.203-0.148 0.352t-0.352 0.148h-2q-0.203 0-0.352-0.148t-0.148-0.352v-3.5h-2q-0.328 0-0.461-0.312-0.133-0.305 0.109-0.539l3.5-3.5q0.141-0.148 0.352-0.148t0.352 0.148l3.5 3.5q0.242 0.234 0.109 0.539z"></path>
</svg>

<svg xmlns="http://www.w3.org/2000/svg" width="13" height="14" viewBox="0 0 13 14"><path fill="#444" d="M10 11.5q0-.203-.148-.352T9.5 11t-.352.148T9 11.5t.148.352T9.5 12t.352-.148T10 11.5zm2 0q0-.203-.148-.352T11.5 11t-.352.148T11 11.5t.148.352.352.148.352-.148T12 11.5zm1-1.75v2.5q0 .312-.22.53t-.53.22H.75q-.312 0-.53-.22T0 12.25v-2.5q0-.312.22-.53T.75 9h3.336q.164.438.55.72T5.5 10h2q.477 0 .863-.28t.55-.72h3.337q.312 0 .53.22t.22.53zm-2.54-5.063Q10.33 5 10 5H8v3.5q0 .202-.148.35T7.5 9h-2q-.203 0-.352-.15T5 8.5V5H3q-.328 0-.46-.313-.134-.305.108-.54l3.5-3.5Q6.288.5 6.5.5t.352.148l3.5 3.5q.242.234.11.54z"/></svg>
